MFG-dev/images/fig-GC-fireworks.svg

<?xml version="1.0" encoding="UTF-8"?>
<svg xmlns="http://www.w3.org/2000/svg" xmlns:xlink="http://www.w3.org/1999/xlink" width="142.1859pt" height="80.9575pt" viewBox="0 0 142.1859 80.9575" version="1.1">
<defs>
<g>
<symbol overflow="visible" id="glyph0-0">
<path style="stroke:none;" d=""/>
</symbol>
<symbol overflow="visible" id="glyph0-1">
<path style="stroke:none;" d="M 2.25 -5.84375 C 3.40625 -5.84375 3.25 -3.765625 3.25 -3.15625 C 3.25 -2.4375 3.40625 -0.453125 2.25 -0.453125 C 1.09375 -0.453125 1.234375 -2.421875 1.234375 -3.15625 C 1.234375 -3.765625 1.09375 -5.84375 2.25 -5.84375 Z M 2.25 -6.4375 C 0.59375 -6.4375 0.046875 -4.21875 0.046875 -3.15625 C 0.046875 -2.0625 0.59375 0.125 2.25 0.125 C 3.90625 0.125 4.453125 -2.0625 4.453125 -3.15625 C 4.453125 -4.21875 3.90625 -6.4375 2.25 -6.4375 Z M 2.25 -6.4375 "/>
</symbol>
<symbol overflow="visible" id="glyph0-2">
<path style="stroke:none;" d="M 1.0625 0 L 3.703125 0 L 3.703125 -0.484375 C 2.875 -0.484375 2.859375 -0.40625 2.859375 -0.84375 L 2.859375 -6.375 L 2.609375 -6.4375 L 0.828125 -5.53125 L 0.828125 -5.0625 C 1.5 -5.34375 1.5 -5.34375 1.609375 -5.34375 C 1.921875 -5.34375 1.75 -5.28125 1.75 -5.078125 L 1.75 -1.015625 C 1.75 -0.34375 1.578125 -0.5 0.890625 -0.484375 L 0.890625 0 Z M 1.0625 0 "/>
</symbol>
<symbol overflow="visible" id="glyph0-3">
<path style="stroke:none;" d="M 4.28125 -1.578125 L 4.09375 -1.65625 C 3.6875 -1.015625 3.640625 -1.03125 3.296875 -1.03125 L 1.5625 -1.03125 L 2.78125 -2.3125 C 3.171875 -2.734375 3.984375 -3.6875 3.984375 -4.640625 C 3.984375 -5.640625 3 -6.4375 2.1875 -6.4375 C 1.390625 -6.4375 0.375 -5.8125 0.078125 -4.34375 L 0.546875 -4.21875 C 0.828125 -4.90625 0.9375 -5.421875 1.75 -5.421875 C 2.8125 -5.421875 2.875 -4.765625 2.875 -4.296875 C 2.875 -3.625 2.53125 -2.9375 1.75 -2.109375 L 0.09375 -0.34375 L 0.09375 0 L 3.875 0 L 4.484375 -1.5 Z M 4.28125 -1.578125 "/>
</symbol>
<symbol overflow="visible" id="glyph0-4">
<path style="stroke:none;" d="M 4.015625 -6.5 C 1.84375 -6.4375 0.140625 -4.609375 0.140625 -2.796875 C 0.140625 -0.90625 1.21875 0.125 2.28125 0.125 C 3.890625 0.125 4.375 -1.46875 4.375 -2.140625 C 4.375 -3.34375 3.515625 -4.203125 2.5625 -4.203125 C 2.046875 -4.203125 1.734375 -4.046875 1.578125 -3.953125 C 1.703125 -4.71875 2.4375 -5.765625 4.21875 -6.03125 L 4.15625 -6.515625 Z M 2.171875 -3.4375 C 3.125 -3.4375 3.234375 -2.703125 3.234375 -1.78125 C 3.234375 -0.765625 2.984375 -0.484375 2.421875 -0.484375 C 1.75 -0.484375 1.3125 -0.96875 1.3125 -2.46875 C 1.3125 -3.015625 1.34375 -3.109375 1.4375 -3.1875 C 1.671875 -3.40625 1.875 -3.4375 2.171875 -3.4375 Z M 2.171875 -3.4375 "/>
</symbol>
</g>
<clipPath id="clip1">
  <path d="M 0 0 L 142.1875 0 L 142.1875 80.957031 L 0 80.957031 Z M 0 0 "/>
</clipPath>
<clipPath id="clip2">
  <path d="M 21 5 L 131 5 L 131 78.972656 L 21 78.972656 Z M 21 5 "/>
</clipPath>
<clipPath id="clip3">
  <path d="M 14 71 L 19 71 L 19 78.972656 L 14 78.972656 Z M 14 71 "/>
</clipPath>
<clipPath id="clip4">
  <path d="M 133 71 L 141.523438 71 L 141.523438 78.972656 L 133 78.972656 Z M 133 71 "/>
</clipPath>
<clipPath id="clip5">
  <path d="M 19 12 L 133 12 L 133 78.972656 L 19 78.972656 Z M 19 12 "/>
</clipPath>
<clipPath id="clip6">
  <path d="M 0 0 L 142.1875 0 L 142.1875 80.957031 L 0 80.957031 Z M 0 0 "/>
</clipPath>
</defs>
<g id="surface1">
<g clip-path="url(#clip1)" clip-rule="nonzero">
<rect x="0" y="0" width="142.1859" height="80.9575" style="fill:rgb(80.000305%,93.104553%,89.498901%);fill-opacity:1;stroke:none;"/>
</g>
<path style=" stroke:none;fill-rule:nonzero;fill:rgb(90.000916%,96.783447%,99.372864%);fill-opacity:1;" d="M 21.484375 5.535156 L 130.082031 5.535156 L 130.082031 77.933594 L 21.484375 77.933594 Z M 21.484375 5.535156 "/>
<g clip-path="url(#clip2)" clip-rule="nonzero">
<path style="fill:none;stroke-width:0.7;stroke-linecap:butt;stroke-linejoin:miter;stroke:rgb(13.729858%,12.159729%,12.548828%);stroke-opacity:1;stroke-miterlimit:4;" d="M 133.112675 456.038106 L 241.710331 456.038106 L 241.710331 528.436544 L 133.112675 528.436544 Z M 133.112675 456.038106 " transform="matrix(1,0,0,-1,-111.6283,533.9717)"/>
</g>
<path style="fill:none;stroke-width:0.7;stroke-linecap:square;stroke-linejoin:miter;stroke:rgb(13.729858%,12.159729%,12.548828%);stroke-opacity:1;stroke-miterlimit:4;" d="M 135.100956 528.436544 L 135.100956 458.038106 M 239.710331 457.924825 L 135.112675 457.924825 " transform="matrix(1,0,0,-1,-111.6283,533.9717)"/>
<path style="fill:none;stroke-width:0.7;stroke-linecap:butt;stroke-linejoin:miter;stroke:rgb(13.729858%,12.159729%,12.548828%);stroke-opacity:1;stroke-miterlimit:4;" d="M 137.307987 457.975606 L 135.163456 457.975606 M 135.120487 457.924825 L 135.120487 460.069356 M 141.655644 457.924825 L 141.655644 460.069356 M 148.194706 457.924825 L 148.194706 460.069356 M 154.729862 457.924825 L 154.729862 460.069356 M 161.268925 457.924825 L 161.268925 460.069356 M 167.804081 457.924825 L 167.804081 460.069356 M 174.343144 457.924825 L 174.343144 460.069356 M 180.882206 457.924825 L 180.882206 460.069356 M 187.417362 457.924825 L 187.417362 460.069356 M 193.956425 457.924825 L 193.956425 460.069356 M 200.495487 457.924825 L 200.495487 460.069356 M 207.030644 457.924825 L 207.030644 460.069356 M 213.569706 457.924825 L 213.569706 460.069356 M 220.104862 457.924825 L 220.104862 460.069356 M 226.643925 457.924825 L 226.643925 460.069356 M 233.179081 457.924825 L 233.179081 460.069356 M 239.718144 457.924825 L 239.718144 460.069356 " transform="matrix(1,0,0,-1,-111.6283,533.9717)"/>
<g clip-path="url(#clip3)" clip-rule="nonzero">
<g style="fill:rgb(13.729858%,12.159729%,12.548828%);fill-opacity:1;">
  <use xlink:href="#glyph0-1" x="14.3825" y="77.9068"/>
</g>
</g>
<g style="fill:rgb(13.729858%,12.159729%,12.548828%);fill-opacity:1;">
  <use xlink:href="#glyph0-2" x="0.8825" y="8.0731"/>
  <use xlink:href="#glyph0-3" x="5.3825" y="8.0731"/>
  <use xlink:href="#glyph0-1" x="9.8825" y="8.0731"/>
  <use xlink:href="#glyph0-1" x="14.3825" y="8.0731"/>
</g>
<g clip-path="url(#clip4)" clip-rule="nonzero">
<g style="fill:rgb(13.729858%,12.159729%,12.548828%);fill-opacity:1;">
  <use xlink:href="#glyph0-2" x="132.2006" y="77.9068"/>
  <use xlink:href="#glyph0-4" x="136.7006" y="77.9068"/>
</g>
</g>
<path style="fill:none;stroke-width:0.7;stroke-linecap:square;stroke-linejoin:miter;stroke:rgb(13.729858%,12.159729%,12.548828%);stroke-opacity:1;stroke-miterlimit:4;" d="M 239.710331 504.174825 L 135.112675 504.174825 " transform="matrix(1,0,0,-1,-111.6283,533.9717)"/>
<g clip-path="url(#clip5)" clip-rule="nonzero">
<path style="fill:none;stroke-width:0.7;stroke-linecap:butt;stroke-linejoin:miter;stroke:rgb(13.729858%,12.159729%,12.548828%);stroke-opacity:1;stroke-miterlimit:4;" d="M 239.710331 457.956075 C 226.28455 488.50295 207.276737 517.678731 186.335331 517.678731 C 160.163456 517.678731 139.194706 467.948263 135.155644 457.928731 " transform="matrix(1,0,0,-1,-111.6283,533.9717)"/>
</g>
<g clip-path="url(#clip6)" clip-rule="nonzero">
<path style="fill:none;stroke-width:0.5;stroke-linecap:butt;stroke-linejoin:miter;stroke:rgb(100%,100%,100%);stroke-opacity:1;stroke-miterlimit:10;" d="M 41.999394 803.999044 L 41.999394 779.999044 M -0.00060625 761.999044 L 23.999394 761.999044 M 653.999394 803.999044 L 653.999394 779.999044 M 695.999394 761.999044 L 671.999394 761.999044 M 41.999394 -0.00095625 L 41.999394 23.999044 M -0.00060625 41.999044 L 23.999394 41.999044 M 653.999394 -0.00095625 L 653.999394 23.999044 M 695.999394 41.999044 L 671.999394 41.999044 " transform="matrix(1,0,0,-1,-111.6283,533.9717)"/>
<path style="fill:none;stroke-width:0.25;stroke-linecap:butt;stroke-linejoin:miter;stroke:rgb(0%,0%,0%);stroke-opacity:1;stroke-miterlimit:10;" d="M 41.999394 803.999044 L 41.999394 779.999044 M -0.00060625 761.999044 L 23.999394 761.999044 M 653.999394 803.999044 L 653.999394 779.999044 M 695.999394 761.999044 L 671.999394 761.999044 M 41.999394 -0.00095625 L 41.999394 23.999044 M -0.00060625 41.999044 L 23.999394 41.999044 M 653.999394 -0.00095625 L 653.999394 23.999044 M 695.999394 41.999044 L 671.999394 41.999044 " transform="matrix(1,0,0,-1,-111.6283,533.9717)"/>
<path style="fill:none;stroke-width:0.5;stroke-linecap:butt;stroke-linejoin:miter;stroke:rgb(100%,100%,100%);stroke-opacity:1;stroke-miterlimit:10;" d="M 323.999394 791.999044 L 371.999394 791.999044 M 323.999394 11.999044 L 371.999394 11.999044 M 11.999394 425.999044 L 11.999394 377.999044 M 683.999394 425.999044 L 683.999394 377.999044 M 347.999394 803.999044 L 347.999394 779.999044 M 347.999394 23.999044 L 347.999394 -0.00095625 M -0.00060625 401.999044 L 23.999394 401.999044 M 671.999394 401.999044 L 695.999394 401.999044 M 347.999394 791.999044 L 353.999394 791.999044 C 353.999394 788.686544 351.311894 785.999044 347.999394 785.999044 C 344.686894 785.999044 341.999394 788.686544 341.999394 791.999044 C 341.999394 795.311544 344.686894 797.999044 347.999394 797.999044 C 351.311894 797.999044 353.999394 795.311544 353.999394 791.999044 M 347.999394 11.999044 L 353.999394 11.999044 C 353.999394 8.686544 351.311894 5.999044 347.999394 5.999044 C 344.686894 5.999044 341.999394 8.686544 341.999394 11.999044 C 341.999394 15.311544 344.686894 17.999044 347.999394 17.999044 C 351.311894 17.999044 353.999394 15.311544 353.999394 11.999044 M 11.999394 401.999044 L 17.999394 401.999044 C 17.999394 398.686544 15.311894 395.999044 11.999394 395.999044 C 8.686894 395.999044 5.999394 398.686544 5.999394 401.999044 C 5.999394 405.311544 8.686894 407.999044 11.999394 407.999044 C 15.311894 407.999044 17.999394 405.311544 17.999394 401.999044 M 683.999394 401.999044 L 689.999394 401.999044 C 689.999394 398.686544 687.311894 395.999044 683.999394 395.999044 C 680.686894 395.999044 677.999394 398.686544 677.999394 401.999044 C 677.999394 405.311544 680.686894 407.999044 683.999394 407.999044 C 687.311894 407.999044 689.999394 405.311544 689.999394 401.999044 " transform="matrix(1,0,0,-1,-111.6283,533.9717)"/>
<path style="fill:none;stroke-width:0.25;stroke-linecap:butt;stroke-linejoin:miter;stroke:rgb(0%,0%,0%);stroke-opacity:1;stroke-miterlimit:10;" d="M 323.999394 791.999044 L 371.999394 791.999044 M 323.999394 11.999044 L 371.999394 11.999044 M 11.999394 425.999044 L 11.999394 377.999044 M 683.999394 425.999044 L 683.999394 377.999044 M 347.999394 803.999044 L 347.999394 779.999044 M 347.999394 23.999044 L 347.999394 -0.00095625 M -0.00060625 401.999044 L 23.999394 401.999044 M 671.999394 401.999044 L 695.999394 401.999044 M 347.999394 791.999044 L 353.999394 791.999044 C 353.999394 788.686544 351.311894 785.999044 347.999394 785.999044 C 344.686894 785.999044 341.999394 788.686544 341.999394 791.999044 C 341.999394 795.311544 344.686894 797.999044 347.999394 797.999044 C 351.311894 797.999044 353.999394 795.311544 353.999394 791.999044 M 347.999394 11.999044 L 353.999394 11.999044 C 353.999394 8.686544 351.311894 5.999044 347.999394 5.999044 C 344.686894 5.999044 341.999394 8.686544 341.999394 11.999044 C 341.999394 15.311544 344.686894 17.999044 347.999394 17.999044 C 351.311894 17.999044 353.999394 15.311544 353.999394 11.999044 M 11.999394 401.999044 L 17.999394 401.999044 C 17.999394 398.686544 15.311894 395.999044 11.999394 395.999044 C 8.686894 395.999044 5.999394 398.686544 5.999394 401.999044 C 5.999394 405.311544 8.686894 407.999044 11.999394 407.999044 C 15.311894 407.999044 17.999394 405.311544 17.999394 401.999044 M 683.999394 401.999044 L 689.999394 401.999044 C 689.999394 398.686544 687.311894 395.999044 683.999394 395.999044 C 680.686894 395.999044 677.999394 398.686544 677.999394 401.999044 C 677.999394 405.311544 680.686894 407.999044 683.999394 407.999044 C 687.311894 407.999044 689.999394 405.311544 689.999394 401.999044 " transform="matrix(1,0,0,-1,-111.6283,533.9717)"/>
</g>
</g>
</svg>

<?xml version="1.0" encoding="UTF-8" standalone="no"?>
<svg
   xmlns:dc="http://purl.org/dc/elements/1.1/"
   xmlns:cc="http://creativecommons.org/ns#"
   xmlns:rdf="http://www.w3.org/1999/02/22-rdf-syntax-ns#"
   xmlns:svg="http://www.w3.org/2000/svg"
   xmlns="http://www.w3.org/2000/svg"
   xmlns:xlink="http://www.w3.org/1999/xlink"
   xmlns:sodipodi="http://sodipodi.sourceforge.net/DTD/sodipodi-0.dtd"
   xmlns:inkscape="http://www.inkscape.org/namespaces/inkscape"
   width="142.1859pt"
   height="80.9575pt"
   viewBox="0 0 142.1859 80.9575"
   version="1.1"
   id="svg3820"
   inkscape:version="0.91 r13725"
   sodipodi:docname="fig-GC-fireworks.svg">
  <metadata
     id="metadata3916">
    <rdf:RDF>
      <cc:Work
         rdf:about="">
        <dc:format>image/svg+xml</dc:format>
        <dc:type
           rdf:resource="http://purl.org/dc/dcmitype/StillImage" />
      </cc:Work>
    </rdf:RDF>
  </metadata>
  <sodipodi:namedview
     pagecolor="#ffffff"
     bordercolor="#666666"
     borderopacity="1"
     objecttolerance="10"
     gridtolerance="10"
     guidetolerance="10"
     inkscape:pageopacity="0"
     inkscape:pageshadow="2"
     inkscape:window-width="1366"
     inkscape:window-height="715"
     id="namedview3914"
     showgrid="false"
     inkscape:zoom="5.2471978"
     inkscape:cx="88.866186"
     inkscape:cy="50.598435"
     inkscape:window-x="0"
     inkscape:window-y="0"
     inkscape:window-maximized="1"
     inkscape:current-layer="svg3820" />
  <defs
     id="defs3822">
    <g
       id="g3824">
      <symbol
         overflow="visible"
         id="glyph0-0">
        <path
           style="stroke:none;"
           d=""
           id="path3827" />
      </symbol>
      <symbol
         overflow="visible"
         id="glyph0-1">
        <path
           style="stroke:none;"
           d="M 2.25 -5.84375 C 3.40625 -5.84375 3.25 -3.765625 3.25 -3.15625 C 3.25 -2.4375 3.40625 -0.453125 2.25 -0.453125 C 1.09375 -0.453125 1.234375 -2.421875 1.234375 -3.15625 C 1.234375 -3.765625 1.09375 -5.84375 2.25 -5.84375 Z M 2.25 -6.4375 C 0.59375 -6.4375 0.046875 -4.21875 0.046875 -3.15625 C 0.046875 -2.0625 0.59375 0.125 2.25 0.125 C 3.90625 0.125 4.453125 -2.0625 4.453125 -3.15625 C 4.453125 -4.21875 3.90625 -6.4375 2.25 -6.4375 Z M 2.25 -6.4375 "
           id="path3830" />
      </symbol>
      <symbol
         overflow="visible"
         id="glyph0-2">
        <path
           style="stroke:none;"
           d="M 1.0625 0 L 3.703125 0 L 3.703125 -0.484375 C 2.875 -0.484375 2.859375 -0.40625 2.859375 -0.84375 L 2.859375 -6.375 L 2.609375 -6.4375 L 0.828125 -5.53125 L 0.828125 -5.0625 C 1.5 -5.34375 1.5 -5.34375 1.609375 -5.34375 C 1.921875 -5.34375 1.75 -5.28125 1.75 -5.078125 L 1.75 -1.015625 C 1.75 -0.34375 1.578125 -0.5 0.890625 -0.484375 L 0.890625 0 Z M 1.0625 0 "
           id="path3833" />
      </symbol>
      <symbol
         overflow="visible"
         id="glyph0-3">
        <path
           style="stroke:none;"
           d="M 4.28125 -1.578125 L 4.09375 -1.65625 C 3.6875 -1.015625 3.640625 -1.03125 3.296875 -1.03125 L 1.5625 -1.03125 L 2.78125 -2.3125 C 3.171875 -2.734375 3.984375 -3.6875 3.984375 -4.640625 C 3.984375 -5.640625 3 -6.4375 2.1875 -6.4375 C 1.390625 -6.4375 0.375 -5.8125 0.078125 -4.34375 L 0.546875 -4.21875 C 0.828125 -4.90625 0.9375 -5.421875 1.75 -5.421875 C 2.8125 -5.421875 2.875 -4.765625 2.875 -4.296875 C 2.875 -3.625 2.53125 -2.9375 1.75 -2.109375 L 0.09375 -0.34375 L 0.09375 0 L 3.875 0 L 4.484375 -1.5 Z M 4.28125 -1.578125 "
           id="path3836" />
      </symbol>
      <symbol
         overflow="visible"
         id="glyph0-4">
        <path
           style="stroke:none;"
           d="M 4.015625 -6.5 C 1.84375 -6.4375 0.140625 -4.609375 0.140625 -2.796875 C 0.140625 -0.90625 1.21875 0.125 2.28125 0.125 C 3.890625 0.125 4.375 -1.46875 4.375 -2.140625 C 4.375 -3.34375 3.515625 -4.203125 2.5625 -4.203125 C 2.046875 -4.203125 1.734375 -4.046875 1.578125 -3.953125 C 1.703125 -4.71875 2.4375 -5.765625 4.21875 -6.03125 L 4.15625 -6.515625 Z M 2.171875 -3.4375 C 3.125 -3.4375 3.234375 -2.703125 3.234375 -1.78125 C 3.234375 -0.765625 2.984375 -0.484375 2.421875 -0.484375 C 1.75 -0.484375 1.3125 -0.96875 1.3125 -2.46875 C 1.3125 -3.015625 1.34375 -3.109375 1.4375 -3.1875 C 1.671875 -3.40625 1.875 -3.4375 2.171875 -3.4375 Z M 2.171875 -3.4375 "
           id="path3839" />
      </symbol>
    </g>
    <clipPath
       id="clip1">
      <path
         d="M 0 0 L 142.1875 0 L 142.1875 80.957031 L 0 80.957031 Z M 0 0 "
         id="path3842" />
    </clipPath>
    <clipPath
       id="clip2">
      <path
         d="M 21 5 L 131 5 L 131 78.972656 L 21 78.972656 Z M 21 5 "
         id="path3845" />
    </clipPath>
    <clipPath
       id="clip3">
      <path
         d="M 14 71 L 19 71 L 19 78.972656 L 14 78.972656 Z M 14 71 "
         id="path3848" />
    </clipPath>
    <clipPath
       id="clip4">
      <path
         d="M 133 71 L 141.523438 71 L 141.523438 78.972656 L 133 78.972656 Z M 133 71 "
         id="path3851" />
    </clipPath>
    <clipPath
       id="clip5">
      <path
         d="M 19 12 L 133 12 L 133 78.972656 L 19 78.972656 Z M 19 12 "
         id="path3854" />
    </clipPath>
    <clipPath
       id="clip6">
      <path
         d="M 0 0 L 142.1875 0 L 142.1875 80.957031 L 0 80.957031 Z M 0 0 "
         id="path3857" />
    </clipPath>
  </defs>
  <path
     inkscape:connector-curvature="0"
     id="path3864"
     d="m 21.484375,5.535156 108.597655,0 0,72.398438 -108.597655,0 z m 0,0"
     style="fill:#e6f5fd;fill-opacity:1;fill-rule:nonzero;stroke:none" />
  <g
     style="clip-rule:nonzero"
     id="g3866"
     clip-path="url(#clip2)">
    <path
       inkscape:connector-curvature="0"
       id="path3868"
       transform="matrix(1,0,0,-1,-111.6283,533.9717)"
       d="m 133.11267,456.03811 108.59766,0 0,72.39843 -108.59766,0 z m 0,0"
       style="fill:none;stroke:#211e1e;stroke-width:0.69999999;stroke-linecap:butt;stroke-linejoin:miter;stroke-miterlimit:4;stroke-opacity:1" />
  </g>
  <path
     inkscape:connector-curvature="0"
     id="path3870"
     d="m 23.47266,5.53516 0,70.39843 m 104.60937,0.11329 -104.59766,0"
     style="fill:none;stroke:#211e1e;stroke-width:0.69999999;stroke-linecap:square;stroke-linejoin:miter;stroke-miterlimit:4;stroke-opacity:1" />
  <path
     inkscape:connector-curvature="0"
     id="path3872"
     d="m 25.67969,75.99609 -2.14453,0 m -0.043,0.0508 0,-2.14454 m 6.53515,2.14454 0,-2.14454 m 6.53907,2.14454 0,-2.14454 m 6.53515,2.14454 0,-2.14454 m 6.53906,2.14454 0,-2.14454 m 6.53516,2.14454 0,-2.14454 m 6.53906,2.14454 0,-2.14454 m 6.53907,2.14454 0,-2.14454 m 6.53515,2.14454 0,-2.14454 m 6.53906,2.14454 0,-2.14454 m 6.53907,2.14454 0,-2.14454 m 6.53515,2.14454 0,-2.14454 m 6.53907,2.14454 0,-2.14454 m 6.53515,2.14454 0,-2.14454 m 6.53906,2.14454 0,-2.14454 m 6.53516,2.14454 0,-2.14454 m 6.53906,2.14454 0,-2.14454"
     style="fill:none;stroke:#211e1e;stroke-width:0.69999999;stroke-linecap:butt;stroke-linejoin:miter;stroke-miterlimit:4;stroke-opacity:1" />
  <g
     style="clip-rule:nonzero"
     id="g3874"
     clip-path="url(#clip3)">
    <g
       id="g3876"
       style="fill:#211e1e;fill-opacity:1">
      <use
         height="100%"
         width="100%"
         id="use3878"
         y="77.906799"
         x="14.3825"
         xlink:href="#glyph0-1" />
    </g>
  </g>
  <g
     id="g3880"
     style="fill:#211e1e;fill-opacity:1">
    <use
       height="100%"
       width="100%"
       id="use3882"
       y="8.0731001"
       x="0.88249999"
       xlink:href="#glyph0-2" />
    <use
       height="100%"
       width="100%"
       id="use3884"
       y="8.0731001"
       x="5.3825002"
       xlink:href="#glyph0-3" />
    <use
       height="100%"
       width="100%"
       id="use3886"
       y="8.0731001"
       x="9.8824997"
       xlink:href="#glyph0-1" />
    <use
       height="100%"
       width="100%"
       id="use3888"
       y="8.0731001"
       x="14.3825"
       xlink:href="#glyph0-1" />
  </g>
  <g
     style="clip-rule:nonzero"
     id="g3890"
     clip-path="url(#clip4)">
    <g
       id="g3892"
       style="fill:#211e1e;fill-opacity:1">
      <use
         height="100%"
         width="100%"
         id="use3894"
         y="77.906799"
         x="132.20061"
         xlink:href="#glyph0-2" />
      <use
         height="100%"
         width="100%"
         id="use3896"
         y="77.906799"
         x="136.70061"
         xlink:href="#glyph0-4" />
    </g>
  </g>
  <path
     inkscape:connector-curvature="0"
     id="path3898"
     d="m 128.08203,29.79688 -104.59766,0"
     style="fill:none;stroke:#211e1e;stroke-width:0.69999999;stroke-linecap:square;stroke-linejoin:miter;stroke-miterlimit:4;stroke-opacity:1" />
  <g
     style="clip-rule:nonzero"
     id="g3900"
     clip-path="url(#clip5)">
    <path
       inkscape:connector-curvature="0"
       id="path3902"
       transform="matrix(1,0,0,-1,-111.6283,533.9717)"
       d="m 239.71033,457.95607 c -13.42578,30.54688 -32.43359,59.72266 -53.375,59.72266 -26.17187,0 -47.14062,-49.73047 -51.17969,-59.75"
       style="fill:none;stroke:#211e1e;stroke-width:0.69999999;stroke-linecap:butt;stroke-linejoin:miter;stroke-miterlimit:4;stroke-opacity:1" />
  </g>
  <g
     style="clip-rule:nonzero"
     id="g3904"
     clip-path="url(#clip6)">
    <path
       inkscape:connector-curvature="0"
       id="path3906"
       transform="matrix(1,0,0,-1,-111.6283,533.9717)"
       d="m 41.999394,803.99904 0,-24 m -42.00000025,-18 24.00000025,0 m 629.999996,42 0,-24 m 42,-18 -24,0 M 41.999394,-9.5625e-4 l 0,24.00000025 m -42.00000025,18 24.00000025,0 M 653.99939,-9.5625e-4 l 0,24.00000025 m 42,18 -24,0"
       style="fill:none;stroke:#ffffff;stroke-width:0.5;stroke-linecap:butt;stroke-linejoin:miter;stroke-miterlimit:10;stroke-opacity:1" />
    <path
       inkscape:connector-curvature="0"
       id="path3908"
       transform="matrix(1,0,0,-1,-111.6283,533.9717)"
       d="m 41.999394,803.99904 0,-24 m -42.00000025,-18 24.00000025,0 m 629.999996,42 0,-24 m 42,-18 -24,0 M 41.999394,-9.5625e-4 l 0,24.00000025 m -42.00000025,18 24.00000025,0 M 653.99939,-9.5625e-4 l 0,24.00000025 m 42,18 -24,0"
       style="fill:none;stroke:#000000;stroke-width:0.25;stroke-linecap:butt;stroke-linejoin:miter;stroke-miterlimit:10;stroke-opacity:1" />
    <path
       inkscape:connector-curvature="0"
       id="path3910"
       transform="matrix(1,0,0,-1,-111.6283,533.9717)"
       d="m 323.99939,791.99904 48,0 m -48,-779.999996 48,0 M 11.999394,425.99904 l 0,-48 m 671.999996,48 0,-48 m -336,426 0,-24 m 0,-755.999996 0,-24.00000025 M -6.0625e-4,401.99904 l 24.00000025,0 m 647.999996,0 24,0 m -348,390 6,0 c 0,-3.3125 -2.6875,-6 -6,-6 -3.3125,0 -6,2.6875 -6,6 0,3.3125 2.6875,6 6,6 3.3125,0 6,-2.6875 6,-6 m -6,-779.999996 6,0 c 0,-3.3125 -2.6875,-6 -6,-6 -3.3125,0 -6,2.6875 -6,6 0,3.3125 2.6875,6 6,6 3.3125,0 6,-2.6875 6,-6 M 11.999394,401.99904 l 6,0 c 0,-3.3125 -2.6875,-6 -6,-6 -3.3125,0 -6,2.6875 -6,6 0,3.3125 2.6875,6 6,6 3.3125,0 6,-2.6875 6,-6 m 665.999996,0 6,0 c 0,-3.3125 -2.6875,-6 -6,-6 -3.3125,0 -6,2.6875 -6,6 0,3.3125 2.6875,6 6,6 3.3125,0 6,-2.6875 6,-6"
       style="fill:none;stroke:#ffffff;stroke-width:0.5;stroke-linecap:butt;stroke-linejoin:miter;stroke-miterlimit:10;stroke-opacity:1" />
    <path
       inkscape:connector-curvature="0"
       id="path3912"
       transform="matrix(1,0,0,-1,-111.6283,533.9717)"
       d="m 323.99939,791.99904 48,0 m -48,-779.999996 48,0 M 11.999394,425.99904 l 0,-48 m 671.999996,48 0,-48 m -336,426 0,-24 m 0,-755.999996 0,-24.00000025 M -6.0625e-4,401.99904 l 24.00000025,0 m 647.999996,0 24,0 m -348,390 6,0 c 0,-3.3125 -2.6875,-6 -6,-6 -3.3125,0 -6,2.6875 -6,6 0,3.3125 2.6875,6 6,6 3.3125,0 6,-2.6875 6,-6 m -6,-779.999996 6,0 c 0,-3.3125 -2.6875,-6 -6,-6 -3.3125,0 -6,2.6875 -6,6 0,3.3125 2.6875,6 6,6 3.3125,0 6,-2.6875 6,-6 M 11.999394,401.99904 l 6,0 c 0,-3.3125 -2.6875,-6 -6,-6 -3.3125,0 -6,2.6875 -6,6 0,3.3125 2.6875,6 6,6 3.3125,0 6,-2.6875 6,-6 m 665.999996,0 6,0 c 0,-3.3125 -2.6875,-6 -6,-6 -3.3125,0 -6,2.6875 -6,6 0,3.3125 2.6875,6 6,6 3.3125,0 6,-2.6875 6,-6"
       style="fill:none;stroke:#000000;stroke-width:0.25;stroke-linecap:butt;stroke-linejoin:miter;stroke-miterlimit:10;stroke-opacity:1" />
  </g>
</svg>
